ix/backward_bulk.svg

<svg viewBox="0 0 24 24" fill="none" xmlns="http://www.w3.org/2000/svg" height="1em" width="1em">
  <path opacity="0.4" d="M22.0002 8.33983V15.6598C22.0002 17.1598 20.3703 18.0998 19.0703 17.3498L15.9002 15.5198L12.7303 13.6898L12.2402 13.4098V10.5898L12.7303 10.3098L15.9002 8.47984L19.0703 6.64983C20.3703 5.89983 22.0002 6.83983 22.0002 8.33983Z" fill="#292D32"/>
  <path d="M12.2394 8.33983V15.6598C12.2394 17.1598 10.6095 18.0998 9.31946 17.3498L6.13947 15.5198L2.96945 13.6898C1.67945 12.9398 1.67945 11.0598 2.96945 10.3098L6.13947 8.47984L9.31946 6.64983C10.6095 5.89983 12.2394 6.83983 12.2394 8.33983Z" fill="#292D32"/>
</svg>

<svg viewBox="0 0 24 24" fill="none" xmlns="http://www.w3.org/2000/svg" height="1em" width="1em">
  <path opacity=".4" d="M22 8.34v7.32c0 1.5-1.63 2.44-2.93 1.69l-3.17-1.83-3.17-1.83-.49-.28v-2.82l.49-.28 3.17-1.83 3.17-1.83c1.3-.75 2.93.19 2.93 1.69Z" fill="#292D32"/>
  <path d="M12.24 8.34v7.32c0 1.5-1.63 2.44-2.92 1.69l-3.18-1.83-3.17-1.83c-1.29-.75-1.29-2.63 0-3.38l3.17-1.83 3.18-1.83c1.29-.75 2.92.19 2.92 1.69Z" fill="#292D32"/>
</svg>
